apps/scalable/drive-removable-media.svg

<?xml version="1.0" standalone="no"?><!-- Generator: Gravit.io --><svg xmlns="http://www.w3.org/2000/svg" xmlns:xlink="http://www.w3.org/1999/xlink" style="isolation:isolate" viewBox="0 0 256 256" width="256" height="256"><g id="Group" filter="url(#RpWGovkrLShy2tNZNJ4d2xhJafHTeKcJ)"><linearGradient id="_lgradient_18" x1="0.49999999999999994" y1="-0.036" x2="0.4999999999999997" y2="1.036" gradientTransform="matrix(244.648,0,0,228.338,5.676,11.947)" gradientUnits="userSpaceOnUse"><stop offset="0%" stop-opacity="1" style="stop-color:rgb(77,77,77)"/><stop offset="98.696%" stop-opacity="1" style="stop-color:rgb(108,108,108)"/></linearGradient><path d=" M 165.685 11.947 C 239.74 11.947 250.324 22.504 250.324 96.491 L 250.324 155.742 C 250.324 229.728 239.74 240.285 165.685 240.285 L 90.315 240.285 C 16.26 240.285 5.676 229.728 5.676 155.742 L 5.676 96.491 C 5.676 22.504 16.26 11.947 90.315 11.947 L 165.685 11.947 L 165.685 11.947 Z " id="Path" fill="url(#_lgradient_18)"/></g><defs><filter id="RpWGovkrLShy2tNZNJ4d2xhJafHTeKcJ" x="-200%" y="-200%" width="400%" height="400%" filterUnits="objectBoundingBox" color-interpolation-filters="sRGB"><feGaussianBlur xmlns="http://www.w3.org/2000/svg" in="SourceGraphic" stdDeviation="4.294"/><feOffset xmlns="http://www.w3.org/2000/svg" dx="0" dy="4" result="pf_100_offsetBlur"/><feFlood xmlns="http://www.w3.org/2000/svg" flood-color="#000000" flood-opacity="0.4"/><feComposite xmlns="http://www.w3.org/2000/svg" in2="pf_100_offsetBlur" operator="in" result="pf_100_dropShadow"/><feBlend xmlns="http://www.w3.org/2000/svg" in="SourceGraphic" in2="pf_100_dropShadow" mode="normal"/></filter></defs><g opacity="0.1"><path d=" M 5.676 126.116 L 5.676 155.742 C 5.676 229.728 16.26 240.285 90.315 240.285 L 165.685 240.285 C 239.74 240.285 250.324 229.728 250.324 155.742 L 250.324 126.116 L 5.676 126.116 L 5.676 126.116 Z " id="Path" fill="rgb(255,255,255)"/></g><g id="Group" style="opacity:0.2;"><g opacity="0.2"><path d=" M 195.964 112.785 L 194.4 106.929 L 206.099 103.789 L 207.675 109.645 C 209.545823 116.615428 210.495568 123.80088 210.5 131.018 C 210.496961 147.330522 205.653159 163.275255 196.582 176.833 C 187.524696 190.398645 174.642343 200.968557 159.569 207.202 C 149.569596 211.351763 138.850292 213.489847 128.024 213.494 C 113.711235 213.493412 99.64461 209.770937 87.205 202.692 C 74.460907 195.448941 63.880838 184.935843 56.557 172.238 C 49.322081 159.713397 45.50884 145.506082 45.5 131.042 C 45.49921 118.557501 48.325915 106.234943 53.768 94.999 C 59.366978 83.444225 67.591864 73.359775 77.785 65.552 C 92.183449 54.501173 109.825626 48.50949 127.976 48.506 C 138.6494 48.504217 149.221991 50.570988 159.109 54.592 C 169.299189 58.73597 178.554217 64.882639 186.326 72.668 C 187.466016 73.805509 188.107086 75.349546 188.108 76.96 C 188.099088 78.565027 187.458974 80.102091 186.326 81.239 L 170.493 97.073 L 166.213 101.352 L 157.642 92.781 L 161.921 88.501 L 173.281 77.142 C 167.662427 72.412541 161.338227 68.591635 154.538 65.818 C 146.102048 62.389779 137.081931 60.628 127.976 60.63 C 112.490058 60.631546 97.437802 65.745517 85.156 75.178 C 76.464141 81.833908 69.45133 90.432366 64.679 100.285 C 60.035557 109.873305 57.623254 120.388496 57.623 131.042 C 57.628434 143.378235 60.881448 155.495645 67.055 166.176 C 73.304767 177.005002 82.327306 185.973003 93.194 192.157 C 103.809798 198.193558 115.811908 201.368276 128.024 201.37 C 137.262 201.37 146.403 199.54 154.926 196 C 167.783573 190.68278 178.774628 181.670546 186.508 170.104 C 194.244667 158.53676 198.37531 144.934072 198.377 131.018 C 198.377 124.859 197.564 118.737 195.964 112.785 L 195.964 112.785 Z " id="Path" fill="rgb(227,227,227)"/></g><g opacity="0.2"><path d=" M 101.559 131.006 C 101.55841 123.990023 104.345117 117.261207 109.306 112.3 C 114.266912 107.34748 120.990142 104.565615 128 104.565 C 135.009401 104.567914 141.731787 107.349429 146.694 112.3 C 151.653743 117.259445 154.440122 123.986075 154.440122 131 C 154.440122 138.013925 151.653743 144.740555 146.694 149.7 C 141.736169 154.658595 135.011972 157.445176 128 157.447 C 120.987569 157.447484 114.262524 154.660551 109.306 149.7 C 104.347405 144.742169 101.560824 138.017972 101.559 131.006 Z  M 113.682 131.006 C 113.682 127.199 115.186 123.562 117.877 120.871 C 120.563928 118.190648 124.204757 116.686193 128 116.688 C 131.795 116.688 135.432 118.192 138.123 120.871 C 140.807067 123.561326 142.315529 127.205729 142.318 131.006 C 142.318 134.801 140.802 138.438 138.123 141.129 C 135.436051 143.810783 131.796265 145.31912 128 145.324 C 124.203277 145.321417 120.562648 143.81273 117.877 141.129 C 115.190571 138.445156 113.681399 134.803357 113.682 131.006 L 113.682 131.006 Z " fill-rule="evenodd" id="Compound Path" fill="rgb(227,227,227)"/></g></g><g id="Group"><path d=" M 195.964 109.785 L 194.4 103.929 L 206.099 100.789 L 207.675 106.645 C 209.545823 113.615428 210.495568 120.80088 210.5 128.018 C 210.496961 144.330522 205.653159 160.275255 196.582 173.833 C 187.524696 187.398645 174.642343 197.968557 159.569 204.202 C 149.569596 208.351763 138.850292 210.489847 128.024 210.494 C 113.711235 210.493412 99.64461 206.770937 87.205 199.692 C 74.460907 192.448941 63.880838 181.935843 56.557 169.238 C 49.322081 156.713397 45.50884 142.506082 45.5 128.042 C 45.49921 115.557501 48.325915 103.234943 53.768 91.999 C 59.366978 80.444225 67.591864 70.359775 77.785 62.552 C 92.183449 51.501173 109.825626 45.50949 127.976 45.506 C 138.6494 45.504217 149.221991 47.570988 159.109 51.592 C 169.299189 55.73597 178.554217 61.882639 186.326 69.668 C 187.466016 70.805509 188.107086 72.349546 188.108 73.96 C 188.099088 75.565027 187.458974 77.102091 186.326 78.239 L 170.493 94.073 L 166.213 98.352 L 157.642 89.781 L 161.921 85.501 L 173.281 74.142 C 167.662427 69.412541 161.338227 65.591635 154.538 62.818 C 146.102048 59.389779 137.081931 57.628 127.976 57.63 C 112.490058 57.631546 97.437802 62.745517 85.156 72.178 C 76.464141 78.833908 69.45133 87.432366 64.679 97.285 C 60.035557 106.873305 57.623254 117.388496 57.623 128.042 C 57.628434 140.378235 60.881448 152.495645 67.055 163.176 C 73.304767 174.005002 82.327306 182.973003 93.194 189.157 C 103.809798 195.193558 115.811908 198.368276 128.024 198.37 C 137.262 198.37 146.403 196.54 154.926 193 C 167.783573 187.68278 178.774628 178.670546 186.508 167.104 C 194.244667 155.53676 198.37531 141.934072 198.377 128.018 C 198.377 121.859 197.564 115.737 195.964 109.785 L 195.964 109.785 Z " id="Path" fill="rgb(227,227,227)"/><path d=" M 101.559 128.006 C 101.55841 120.990023 104.345117 114.261207 109.306 109.3 C 114.266912 104.34748 120.990142 101.565615 128 101.565 C 135.009401 101.567914 141.731787 104.349429 146.694 109.3 C 151.653743 114.259445 154.440122 120.986075 154.440122 128 C 154.440122 135.013925 151.653743 141.740555 146.694 146.7 C 141.736169 151.658595 135.011972 154.445176 128 154.447 C 120.987569 154.447484 114.262524 151.660551 109.306 146.7 C 104.347405 141.742169 101.560824 135.017972 101.559 128.006 Z  M 113.682 128.006 C 113.682 124.199 115.186 120.562 117.877 117.871 C 120.563928 115.190648 124.204757 113.686193 128 113.688 C 131.795 113.688 135.432 115.192 138.123 117.871 C 140.807067 120.561326 142.315529 124.205729 142.318 128.006 C 142.318 131.801 140.802 135.438 138.123 138.129 C 135.436051 140.810783 131.796265 142.31912 128 142.324 C 124.203277 142.321417 120.562648 140.81273 117.877 138.129 C 115.190571 135.445156 113.681399 131.803357 113.682 128.006 L 113.682 128.006 Z " fill-rule="evenodd" id="Compound Path" fill="rgb(227,227,227)"/></g></svg>

<svg xmlns="http://www.w3.org/2000/svg" style="isolation:isolate" width="256" height="256"><defs><clipPath id="a"><path d="M0 0h256v256H0z"/></clipPath></defs><g clip-path="url(#a)"><defs><filter id="b" width="270.648" height="254.338" x="-7.32" y="2.95" filterUnits="userSpaceOnUse"><feGaussianBlur xmlns="http://www.w3.org/2000/svg" in="SourceGraphic" stdDeviation="4.294"/><feOffset xmlns="http://www.w3.org/2000/svg" dy="4" result="pf_100_offsetBlur"/><feFlood xmlns="http://www.w3.org/2000/svg" flood-opacity=".4"/><feComposite xmlns="http://www.w3.org/2000/svg" in2="pf_100_offsetBlur" operator="in" result="pf_100_dropShadow"/><feBlend xmlns="http://www.w3.org/2000/svg" in="SourceGraphic" in2="pf_100_dropShadow"/></filter></defs><g filter="url(#b)"><linearGradient id="c" x1=".5" x2=".5" y1="-.036" y2="1.036" gradientTransform="matrix(244.648 0 0 228.338 5.676 11.947)" gradientUnits="userSpaceOnUse"><stop offset="0%" stop-color="#4d4d4d"/><stop offset="98.696%" stop-color="#6c6c6c"/></linearGradient><path fill="url(#c)" d="M165.685 11.947c74.055 0 84.639 10.557 84.639 84.544v59.251c0 73.986-10.584 84.543-84.639 84.543h-75.37c-74.055 0-84.639-10.557-84.639-84.543V96.491c0-73.987 10.584-84.544 84.639-84.544h75.37z"/></g><path fill="#FFF" d="M5.676 126.116v29.626c0 73.986 10.584 84.543 84.639 84.543h75.37c74.055 0 84.639-10.557 84.639-84.543v-29.626H5.676z" opacity=".1"/><g opacity=".4"><linearGradient id="d" x1=".517" x2=".517" y2="1"><stop offset="0%" stop-color="#fff"/><stop offset="12.5%" stop-opacity=".098" stop-color="#fff"/><stop offset="92.5%" stop-opacity=".098"/><stop offset="100%" stop-opacity=".498"/></linearGradient><path fill="none" stroke="url(#d)" stroke-linecap="round" stroke-linejoin="round" stroke-width="4.077" d="M165.685 11.947c74.055 0 84.639 10.557 84.639 84.544v59.251c0 73.986-10.584 84.543-84.639 84.543h-75.37c-74.055 0-84.639-10.557-84.639-84.543V96.491c0-73.987 10.584-84.544 84.639-84.544h75.37z" vector-effect="non-scaling-stroke"/></g><g opacity=".2" fill="#E3E3E3"><path d="M195.964 112.785l-1.564-5.856 11.699-3.14 1.576 5.856a82.647 82.647 0 0 1 2.825 21.373 82.416 82.416 0 0 1-13.918 45.815 82.34 82.34 0 0 1-37.013 30.369 82.38 82.38 0 0 1-31.545 6.292 82.538 82.538 0 0 1-40.819-10.802 82.36 82.36 0 0 1-30.648-30.454A82.46 82.46 0 0 1 45.5 131.042a82.673 82.673 0 0 1 8.268-36.043 82.299 82.299 0 0 1 24.017-29.447 82.462 82.462 0 0 1 50.191-17.046 82.603 82.603 0 0 1 31.133 6.086 82.222 82.222 0 0 1 27.217 18.076 6.068 6.068 0 0 1 1.782 4.292 6.11 6.11 0 0 1-1.782 4.279l-15.833 15.834-4.28 4.279-8.571-8.571 4.279-4.28 11.36-11.359a70.38 70.38 0 0 0-18.743-11.324 70.512 70.512 0 0 0-26.562-5.188 70.312 70.312 0 0 0-42.82 14.548 70.126 70.126 0 0 0-20.477 25.107 70.57 70.57 0 0 0-7.056 30.757 70.268 70.268 0 0 0 9.432 35.134 70.359 70.359 0 0 0 26.139 25.981 70.482 70.482 0 0 0 34.83 9.213c9.238 0 18.379-1.83 26.902-5.37a70.315 70.315 0 0 0 31.582-25.896 70.32 70.32 0 0 0 11.869-39.086c0-6.159-.813-12.281-2.413-18.233z"/><path fill-rule="evenodd" d="M101.559 131.006a26.452 26.452 0 0 1 7.747-18.706A26.463 26.463 0 0 1 128 104.565a26.484 26.484 0 0 1 18.694 7.735 26.445 26.445 0 0 1 0 37.4A26.445 26.445 0 0 1 128 157.447a26.424 26.424 0 0 1-18.694-7.747 26.445 26.445 0 0 1-7.747-18.694zm12.123 0c0-3.807 1.504-7.444 4.195-10.135A14.324 14.324 0 0 1 128 116.688c3.795 0 7.432 1.504 10.123 4.183a14.363 14.363 0 0 1 4.195 10.135c0 3.795-1.516 7.432-4.195 10.123A14.356 14.356 0 0 1 128 145.324a14.335 14.335 0 0 1-10.123-4.195 14.306 14.306 0 0 1-4.195-10.123z"/></g><g fill="#E3E3E3"><path d="M195.964 109.785l-1.564-5.856 11.699-3.14 1.576 5.856a82.647 82.647 0 0 1 2.825 21.373 82.416 82.416 0 0 1-13.918 45.815 82.34 82.34 0 0 1-37.013 30.369 82.38 82.38 0 0 1-31.545 6.292 82.538 82.538 0 0 1-40.819-10.802 82.36 82.36 0 0 1-30.648-30.454A82.46 82.46 0 0 1 45.5 128.042a82.673 82.673 0 0 1 8.268-36.043 82.299 82.299 0 0 1 24.017-29.447 82.462 82.462 0 0 1 50.191-17.046 82.603 82.603 0 0 1 31.133 6.086 82.222 82.222 0 0 1 27.217 18.076 6.068 6.068 0 0 1 1.782 4.292 6.11 6.11 0 0 1-1.782 4.279l-15.833 15.834-4.28 4.279-8.571-8.571 4.279-4.28 11.36-11.359a70.38 70.38 0 0 0-18.743-11.324 70.512 70.512 0 0 0-26.562-5.188 70.312 70.312 0 0 0-42.82 14.548 70.126 70.126 0 0 0-20.477 25.107 70.57 70.57 0 0 0-7.056 30.757 70.268 70.268 0 0 0 9.432 35.134 70.359 70.359 0 0 0 26.139 25.981 70.482 70.482 0 0 0 34.83 9.213c9.238 0 18.379-1.83 26.902-5.37a70.315 70.315 0 0 0 31.582-25.896 70.32 70.32 0 0 0 11.869-39.086c0-6.159-.813-12.281-2.413-18.233z"/><path fill-rule="evenodd" d="M101.559 128.006a26.452 26.452 0 0 1 7.747-18.706A26.463 26.463 0 0 1 128 101.565a26.484 26.484 0 0 1 18.694 7.735 26.445 26.445 0 0 1 0 37.4A26.445 26.445 0 0 1 128 154.447a26.424 26.424 0 0 1-18.694-7.747 26.445 26.445 0 0 1-7.747-18.694zm12.123 0c0-3.807 1.504-7.444 4.195-10.135A14.324 14.324 0 0 1 128 113.688c3.795 0 7.432 1.504 10.123 4.183a14.363 14.363 0 0 1 4.195 10.135c0 3.795-1.516 7.432-4.195 10.123A14.356 14.356 0 0 1 128 142.324a14.335 14.335 0 0 1-10.123-4.195 14.306 14.306 0 0 1-4.195-10.123z"/></g></g></svg>
